X: 1
T:Salamanca Reel, The
R:reel
D:Bothy Band 1975.
Z:id:hn-reel-73
M: 4/4
K:D
AD "D" (3FED AD (3FED|Adcd fdcd|"Em"BE~E2 BE~E2|Beed cdeg|
"Bm"fB~B2 fB~B2|fgef dfag|fdec "G" dBAG|1 "A"FAEF "D"D2dB:|2 "A" FAEF "D"D2fg||
|:"D"afdg"G" bgeg|"D"fdecd cBc|Addc "A"defg|(3aba gb a2fg|
"D"~a3f "G"~g3e|"D"~f3e "G"dfag|fdec dBAG|1 "A"FGEF "D"D2fg:|2 "A"FAEF "D"D2dB||
